X:17
T:Farewell to Whiskey
Z: id:dc-polka-15
M:2/4
L:1/8
K:G Major
DG B/A/G/A/|BE EG/E/|DG B/A/G/B/|dB Bd|!
e/f/g/e/ dB|c/B/A/G/ AB|DG B/A/G/A/|BG G2:|!
dB/d/ gg|e/f/g/e/ dB|dB/d/ gg|ef g2|!
e/f/g/e/ dB|c/B/A/G/ AB|DG B/A/G/A/|BG G2:|!

